T: Willows, The
M: 3/4
L: 1/8
K: Dmaj
DE|:F3E FA|D3D dc|B3A Bd|A3D FA|
[1B3A Bd|A2 F2 (3DEF|G4 FG|E3A AG:|
[2B3A Bd|A2 F2 DE|F4 EF/E/|D3A dc||
A4 dc|A4 dA|AB/A/ GF GA|E3D dc|
A4 dc|A4 FD|GF GA Bd|e3d dc|
A4 dc|A4dA|AB/A/ GF GA|E4 DE|
F3E FA|F3E FA|F2 E4|E4 DE||
